X:130
T:score213
L:1/4
Q:1/4=96
M:3/4
I:linebreak $
K:G
 d/B/ | ^G =f e | (d c) c/A/ | F e d | (c B) e/c/ |$ A c/A/ F | D/F/ A/c/ B | (3e/c/A/ G F | %8
 G2 z |] %9
